resources/icons/16px/detection.svg

<svg width="16" height="16" viewBox="0 0 16 16" fill="none" xmlns="http://www.w3.org/2000/svg">
<path d="M1 0H5C5.55228 0 6 0.447715 6 1C6 1.55228 5.55228 2 5 2H2V5C2 5.55228 1.55228 6 1 6C0.447715 6 0 5.55228 0 5V1C0 0.447715 0.447715 0 1 0Z" fill="black"/>
<path d="M0 15V11C0 10.4477 0.447715 10 1 10C1.55228 10 2 10.4477 2 11V14H5C5.55228 14 6 14.4477 6 15C6 15.5523 5.55228 16 5 16H1C0.447715 16 0 15.5523 0 15Z" fill="black"/>
<path d="M16 15C16 15.5523 15.5523 16 15 16H11C10.4477 16 10 15.5523 10 15C10 14.4477 10.4477 14 11 14H14V11C14 10.4477 14.4477 10 15 10C15.5523 10 16 10.4477 16 11V15Z" fill="black"/>
<path d="M16 1V5C16 5.55228 15.5523 6 15 6C14.4477 6 14 5.55228 14 5V2H11C10.4477 2 10 1.55228 10 1C10 0.447715 10.4477 0 11 0H15C15.5523 0 16 0.447715 16 1Z" fill="black"/>
<path d="M5 4H11C11.5523 4 12 4.44772 12 5V11C12 11.5523 11.5523 12 11 12H5C4.44772 12 4 11.5523 4 11V5C4 4.44772 4.44772 4 5 4ZM6 6V10H10V6H6Z" fill="black"/>
</svg>

<svg xmlns="http://www.w3.org/2000/svg" viewBox="0 0 16 16">
  <path d="M1 0h4a1 1 0 0 1 0 2H2v3a1 1 0 0 1-2 0V1a1 1 0 0 1 1-1M0 15v-4a1 1 0 1 1 2 0v3h3a1 1 0 1 1 0 2H1a1 1 0 0 1-1-1M16 15a1 1 0 0 1-1 1h-4a1 1 0 1 1 0-2h3v-3a1 1 0 1 1 2 0zM16 1v4a1 1 0 1 1-2 0V2h-3a1 1 0 1 1 0-2h4a1 1 0 0 1 1 1M5 4h6a1 1 0 0 1 1 1v6a1 1 0 0 1-1 1H5a1 1 0 0 1-1-1V5a1 1 0 0 1 1-1m1 2v4h4V6z"/>
</svg>
